icons/general-filled-filled.svg

<svg viewBox="0 0 20 20"><path fill="currentColor" fill-rule="evenodd" d="M16 .4a3.6 3.6 0 0 1 3.6 3.6v12a3.6 3.6 0 0 1-3.6 3.6h-12a3.6 3.6 0 0 1-3.6-3.6v-12a3.6 3.6 0 0 1 3.6-3.6zm-10.7 2.6a2.3 2.3 0 0 0-2.3 2.3v2.7a1 1 0 0 0 2 0v-2.7q0-.2.3-.3h2.7a1 1 0 0 0 0-2zm6.7 0a1 1 0 1 0 0 2h2.7q.3 0 .3.3v2.7a1 1 0 1 0 2 0v-2.7a2.3 2.3 0 0 0-2.3-2.3zm-7 9a1 1 0 1 0-2 0v2.7a2.3 2.3 0 0 0 2.3 2.3h2.7a1 1 0 1 0 0-2h-2.7a.3.3 0 0 1-.3-.3zm12 0a1 1 0 1 0-2 0v2.7q0 .3-.3.3h-2.7a1 1 0 1 0 0 2h2.7a2.3 2.3 0 0 0 2.3-2.3z" clip-rule="evenodd"/></svg>

<svg viewBox="0 0 20 20"><path fill="currentColor" fill-rule="evenodd" d="M16 .4A3.6 3.6 0 0 1 19.6 4v12a3.6 3.6 0 0 1-3.6 3.6H4A3.6 3.6 0 0 1 .4 16V4A3.6 3.6 0 0 1 4 .4zM5.3 3A2.3 2.3 0 0 0 3 5.3V8a1 1 0 0 0 2 0V5.3l.3-.3H8a1 1 0 0 0 0-2zM12 3a1 1 0 1 0 0 2h2.7q.3 0 .3.3V8a1 1 0 1 0 2 0V5.3A2.3 2.3 0 0 0 14.7 3zm-7 9a1 1 0 1 0-2 0v2.7A2.3 2.3 0 0 0 5.3 17H8a1 1 0 1 0 0-2H5.3l-.3-.3zm12 0a1 1 0 1 0-2 0v2.7q0 .3-.3.3H12a1 1 0 1 0 0 2h2.7a2.3 2.3 0 0 0 2.3-2.3z" clip-rule="evenodd"/></svg>
